icons/sparkle/sparkle-2.svg

<svg width="14" height="14" viewBox="0 0 14 14" fill="none"
    xmlns="http://www.w3.org/2000/svg">
    <path d="M6.75 2.75C7.02614 2.75 7.25 2.97386 7.25 3.25C7.25 5.183 8.817 6.75 10.75 6.75C11.0261 6.75 11.25 6.97386 11.25 7.25C11.25 7.52614 11.0261 7.75 10.75 7.75C8.817 7.75 7.25 9.317 7.25 11.25C7.25 11.5261 7.02614 11.75 6.75 11.75C6.47386 11.75 6.25 11.5261 6.25 11.25C6.25 9.317 4.683 7.75 2.75 7.75C2.47386 7.75 2.25 7.52614 2.25 7.25C2.25 6.97386 2.47386 6.75 2.75 6.75C4.683 6.75 6.25 5.183 6.25 3.25C6.25 2.97386 6.47386 2.75 6.75 2.75ZM6.75 5.31055C6.32108 6.1415 5.6415 6.82108 4.81055 7.25C5.64125 7.67879 6.32105 8.35787 6.75 9.18848C7.17881 8.35813 7.85813 7.67881 8.68848 7.25C7.85787 6.82105 7.17879 6.14125 6.75 5.31055Z" fill="red"/>
    <path d="M10.25 2.25C10.2817 2.25 10.3127 2.25315 10.3428 2.25879C10.3551 2.26111 10.3669 2.26535 10.3789 2.26855C10.3972 2.27343 10.4152 2.27833 10.4326 2.28516C10.4447 2.28993 10.4561 2.29609 10.4678 2.30176C10.4835 2.30938 10.499 2.31701 10.5137 2.32617C10.5248 2.33313 10.5354 2.34085 10.5459 2.34863C10.5607 2.35952 10.5744 2.37138 10.5879 2.38379C10.5967 2.39194 10.6051 2.40042 10.6133 2.40918C10.625 2.42168 10.6361 2.43459 10.6465 2.44824C10.655 2.4594 10.6633 2.47056 10.6709 2.48242C10.6824 2.50049 10.692 2.51951 10.7012 2.53906C10.7041 2.54538 10.7082 2.55115 10.7109 2.55762C10.7232 2.58702 10.7337 2.61747 10.7402 2.64941L10.7598 2.85059C10.7997 3.04608 10.9539 3.20034 11.1494 3.24023L11.3506 3.25977C11.3821 3.2662 11.4124 3.27602 11.4414 3.28809C11.4479 3.29077 11.4536 3.29491 11.46 3.29785C11.4795 3.30696 11.4985 3.31665 11.5166 3.32812C11.5285 3.33565 11.5396 3.34407 11.5508 3.35254C11.5645 3.36293 11.5773 3.37403 11.5898 3.38574C11.5986 3.39394 11.6071 3.40233 11.6152 3.41113C11.6277 3.42457 11.6395 3.43838 11.6504 3.45312C11.6582 3.46365 11.6659 3.47421 11.6729 3.48535C11.6821 3.50006 11.6896 3.51557 11.6973 3.53125C11.703 3.54289 11.7091 3.55428 11.7139 3.56641C11.7207 3.5838 11.7255 3.60183 11.7305 3.62012C11.7337 3.63214 11.7379 3.64389 11.7402 3.65625C11.746 3.68668 11.75 3.7179 11.75 3.75C11.75 3.78177 11.7459 3.81264 11.7402 3.84277C11.7379 3.85514 11.7337 3.86688 11.7305 3.87891C11.7256 3.89721 11.7207 3.9152 11.7139 3.93262C11.7091 3.94477 11.703 3.95611 11.6973 3.96777C11.6896 3.98348 11.682 3.99894 11.6729 4.01367C11.6659 4.02484 11.6582 4.03534 11.6504 4.0459C11.6395 4.06068 11.6277 4.07442 11.6152 4.08789C11.6071 4.09672 11.5986 4.10506 11.5898 4.11328C11.5773 4.12503 11.5645 4.13606 11.5508 4.14648C11.5396 4.15498 11.5285 4.16335 11.5166 4.1709C11.4985 4.18241 11.4795 4.19203 11.46 4.20117C11.4536 4.20412 11.4479 4.20825 11.4414 4.21094C11.4123 4.22307 11.3822 4.23378 11.3506 4.24023L11.1494 4.25977C10.9539 4.29966 10.7997 4.45392 10.7598 4.64941L10.7402 4.85059C10.7338 4.88222 10.7231 4.91225 10.7109 4.94141C10.7082 4.94788 10.7041 4.95363 10.7012 4.95996C10.692 4.97955 10.6824 4.9985 10.6709 5.0166C10.6634 5.02849 10.655 5.0396 10.6465 5.05078C10.6361 5.06447 10.625 5.07731 10.6133 5.08984C10.6051 5.09863 10.5967 5.10706 10.5879 5.11523C10.5744 5.12768 10.5607 5.13947 10.5459 5.15039C10.5353 5.1582 10.5248 5.16587 10.5137 5.17285C10.4989 5.18204 10.4835 5.18962 10.4678 5.19727C10.4561 5.20295 10.4448 5.20908 10.4326 5.21387C10.4152 5.22072 10.3972 5.22557 10.3789 5.23047C10.3669 5.23369 10.3551 5.23791 10.3428 5.24023C10.3126 5.2459 10.2818 5.25 10.25 5.25C10.2179 5.25 10.1867 5.24601 10.1562 5.24023C10.1439 5.23788 10.1321 5.23371 10.1201 5.23047C10.1018 5.22554 10.0838 5.22075 10.0664 5.21387C10.0543 5.20906 10.0429 5.20297 10.0312 5.19727C10.0156 5.1896 10.0001 5.18206 9.98535 5.17285C9.97421 5.16586 9.96365 5.15821 9.95312 5.15039C9.93838 5.13946 9.92457 5.12768 9.91113 5.11523C9.90233 5.10706 9.89394 5.09863 9.88574 5.08984C9.87403 5.07732 9.86293 5.06446 9.85254 5.05078C9.84407 5.03961 9.83565 5.02848 9.82812 5.0166C9.81665 4.99852 9.80696 4.97952 9.79785 4.95996C9.79491 4.95364 9.79077 4.94787 9.78809 4.94141C9.77602 4.91236 9.7662 4.8821 9.75977 4.85059L9.74023 4.64941C9.70034 4.45392 9.54608 4.29966 9.35059 4.25977L9.14941 4.24023C9.11747 4.23372 9.08702 4.22324 9.05762 4.21094C9.05115 4.20824 9.04538 4.20413 9.03906 4.20117C9.01951 4.192 9.00049 4.18243 8.98242 4.1709C8.97056 4.16334 8.9594 4.15499 8.94824 4.14648C8.93459 4.13606 8.92168 4.12503 8.90918 4.11328C8.90042 4.10506 8.89194 4.09672 8.88379 4.08789C8.87138 4.07443 8.85952 4.06067 8.84863 4.0459C8.84085 4.03535 8.83313 4.02483 8.82617 4.01367C8.81701 3.99895 8.80938 3.98346 8.80176 3.96777C8.79609 3.95613 8.78993 3.94475 8.78516 3.93262C8.77833 3.91523 8.77343 3.89718 8.76855 3.87891C8.76535 3.8669 8.76111 3.85512 8.75879 3.84277C8.75315 3.81269 8.75 3.78171 8.75 3.75C8.75 3.71796 8.75303 3.68662 8.75879 3.65625C8.76113 3.64391 8.76533 3.63212 8.76855 3.62012C8.77346 3.60186 8.7783 3.58377 8.78516 3.56641C8.78994 3.55429 8.79607 3.54288 8.80176 3.53125C8.8094 3.51559 8.81699 3.50004 8.82617 3.48535C8.83314 3.47422 8.84084 3.46365 8.84863 3.45312C8.85953 3.43839 8.87138 3.42456 8.88379 3.41113C8.89194 3.40233 8.90042 3.39394 8.90918 3.38574C8.92168 3.37402 8.93459 3.36293 8.94824 3.35254C8.95939 3.34406 8.97057 3.33566 8.98242 3.32812C9.00047 3.31663 9.01954 3.30699 9.03906 3.29785C9.04538 3.2949 9.05116 3.29078 9.05762 3.28809C9.08692 3.27585 9.1176 3.26626 9.14941 3.25977L9.35059 3.24023C9.54608 3.20034 9.70034 3.04608 9.74023 2.85059L9.75977 2.64941C9.76626 2.6176 9.77585 2.58692 9.78809 2.55762C9.79078 2.55116 9.7949 2.54538 9.79785 2.53906C9.80699 2.51954 9.81663 2.50047 9.82812 2.48242C9.83566 2.47057 9.84406 2.45939 9.85254 2.44824C9.86293 2.43459 9.87402 2.42168 9.88574 2.40918C9.89394 2.40042 9.90233 2.39194 9.91113 2.38379C9.92456 2.37138 9.93839 2.35953 9.95312 2.34863C9.96365 2.34084 9.97422 2.33314 9.98535 2.32617C10 2.31699 10.0156 2.3094 10.0312 2.30176C10.0429 2.29607 10.0543 2.28994 10.0664 2.28516C10.0838 2.2783 10.1019 2.27346 10.1201 2.26855C10.1321 2.26533 10.1439 2.26113 10.1562 2.25879C10.1866 2.25303 10.218 2.25 10.25 2.25Z" fill="green"/>
</svg>

<svg xmlns="http://www.w3.org/2000/svg" width="14" height="14" fill="none" viewBox="0 0 14 14"><path fill="red" d="M6.75 2.75a.5.5 0 0 1 .5.5 3.5 3.5 0 0 0 3.5 3.5.5.5 0 0 1 0 1 3.5 3.5 0 0 0-3.5 3.5.5.5 0 0 1-1 0 3.5 3.5 0 0 0-3.5-3.5.5.5 0 0 1 0-1 3.5 3.5 0 0 0 3.5-3.5.5.5 0 0 1 .5-.5m0 2.56a4.5 4.5 0 0 1-1.94 1.94 4.5 4.5 0 0 1 1.94 1.938A4.5 4.5 0 0 1 8.688 7.25 4.5 4.5 0 0 1 6.75 5.31"/><path fill="green" d="M10.25 2.25q.048 0 .093.009.018.003.036.01.027.006.054.016l.035.017a.5.5 0 0 1 .12.082.5.5 0 0 1 .113.155l.01.019q.019.044.03.091l.019.202c.04.195.194.35.39.39l.2.019a.5.5 0 0 1 .091.028l.019.01q.03.013.057.03l.034.025a.5.5 0 0 1 .122.132q.014.022.024.046l.017.035q.01.027.016.054l.01.036a.5.5 0 0 1 0 .187l-.01.036-.016.054-.017.035a1 1 0 0 1-.047.078.5.5 0 0 1-.133.125l-.057.03-.019.01a.5.5 0 0 1-.09.03l-.202.019a.5.5 0 0 0-.39.39l-.019.2a.5.5 0 0 1-.03.091l-.009.019a.5.5 0 0 1-.113.155.5.5 0 0 1-.12.082l-.035.017-.054.016-.036.01a.5.5 0 0 1-.187 0l-.036-.01q-.027-.006-.054-.016l-.035-.017-.046-.024a.5.5 0 0 1-.187-.213l-.01-.019a.5.5 0 0 1-.028-.09l-.02-.202a.5.5 0 0 0-.39-.39l-.2-.019a.5.5 0 0 1-.092-.03l-.019-.009a.5.5 0 0 1-.213-.187l-.024-.046-.017-.035-.016-.054-.01-.036a.5.5 0 0 1 0-.187l.01-.036q.006-.027.016-.054l.017-.035a.5.5 0 0 1 .082-.12.5.5 0 0 1 .155-.113l.019-.01a.5.5 0 0 1 .091-.028l.202-.02a.5.5 0 0 0 .39-.39l.019-.2a.5.5 0 0 1 .028-.092l.01-.019a.5.5 0 0 1 .187-.213q.022-.014.046-.024l.035-.017q.027-.01.054-.016l.036-.01a.5.5 0 0 1 .094-.009"/></svg>
